<?xml version="1.0" encoding="UTF-8"?>
<map version="1.10" tiledversion="1.11.2" orientation="orthogonal" renderorder="right-down" width="200" height="50" tilewidth="32" tileheight="32" infinite="0" nextlayerid="2" nextobjectid="1">
 <editorsettings>
  <export target="Map/map4.json" format="json"/>
 </editorsettings>
 <tileset firstgid="1" name="MarioSet" tilewidth="128" tileheight="128" tilecount="149" columns="0">
  <grid orientation="orthogonal" width="1" height="1"/>
  <tile id="0">
   <image source="Mario/SmallMario_0.png" width="32" height="40"/>
  </tile>
  <tile id="1">
   <image source="Tile/1.png" width="32" height="32"/>
  </tile>
  <tile id="2">
   <image source="Tile/2.png" width="32" height="32"/>
  </tile>
  <tile id="3">
   <image source="Tile/3.png" width="32" height="32"/>
  </tile>
  <tile id="4">
   <image source="Tile/4.png" width="32" height="32"/>
  </tile>
  <tile id="5">
   <image source="Tile/5.png" width="32" height="32"/>
  </tile>
  <tile id="6">
   <image source="Tile/6.png" width="32" height="32"/>
  </tile>
  <tile id="7">
   <image source="Tile/7.png" width="32" height="32"/>
  </tile>
  <tile id="8">
   <image source="Tile/8.png" width="32" height="32"/>
  </tile>
  <tile id="9">
   <image source="Tile/9.png" width="32" height="32"/>
  </tile>
  <tile id="10">
   <image source="Tile/10.png" width="32" height="32"/>
  </tile>
  <tile id="11">
   <image source="Tile/11.png" width="32" height="32"/>
  </tile>
  <tile id="12">
   <image source="Tile/12.png" width="32" height="32"/>
  </tile>
  <tile id="13">
   <image source="Tile/13.png" width="32" height="32"/>
  </tile>
  <tile id="14">
   <image source="Tile/14.png" width="32" height="32"/>
  </tile>
  <tile id="15">
   <image source="Tile/15.png" width="32" height="32"/>
  </tile>
  <tile id="16">
   <image source="Tile/16.png" width="32" height="32"/>
  </tile>
  <tile id="17">
   <image source="Tile/17.png" width="32" height="32"/>
  </tile>
  <tile id="18">
   <image source="Tile/18.png" width="32" height="32"/>
  </tile>
  <tile id="19">
   <image source="Tile/19.png" width="32" height="32"/>
  </tile>
  <tile id="20">
   <image source="Tile/20.png" width="32" height="32"/>
  </tile>
  <tile id="21">
   <image source="Tile/21.png" width="32" height="32"/>
  </tile>
  <tile id="22">
   <image source="Tile/22.png" width="32" height="32"/>
  </tile>
  <tile id="23">
   <image source="Tile/23.png" width="32" height="32"/>
  </tile>
  <tile id="24">
   <image source="Tile/24.png" width="32" height="32"/>
  </tile>
  <tile id="25">
   <image source="Tile/25.png" width="32" height="32"/>
  </tile>
  <tile id="26">
   <image source="Tile/26.png" width="32" height="32"/>
  </tile>
  <tile id="27">
   <image source="Tile/27.png" width="32" height="32"/>
  </tile>
  <tile id="28">
   <image source="Tile/28.png" width="32" height="32"/>
  </tile>
  <tile id="29">
   <image source="Tile/29.png" width="32" height="32"/>
  </tile>
  <tile id="30">
   <image source="Tile/30.png" width="32" height="32"/>
  </tile>
  <tile id="31">
   <image source="Tile/31.png" width="32" height="32"/>
  </tile>
  <tile id="32">
   <image source="Tile/32.png" width="32" height="32"/>
  </tile>
  <tile id="33">
   <image source="Tile/33.png" width="32" height="32"/>
  </tile>
  <tile id="34">
   <image source="Tile/34.png" width="32" height="32"/>
  </tile>
  <tile id="35">
   <image source="Tile/35.png" width="32" height="32"/>
  </tile>
  <tile id="36">
   <image source="Tile/36.png" width="32" height="32"/>
  </tile>
  <tile id="37">
   <image source="Tile/37.png" width="32" height="32"/>
  </tile>
  <tile id="38">
   <image source="Tile/38.png" width="32" height="32"/>
  </tile>
  <tile id="39">
   <image source="Tile/39.png" width="32" height="32"/>
  </tile>
  <tile id="40">
   <image source="Tile/40.png" width="32" height="32"/>
  </tile>
  <tile id="41">
   <image source="Tile/41.png" width="32" height="32"/>
  </tile>
  <tile id="42">
   <image source="Tile/42.png" width="32" height="32"/>
  </tile>
  <tile id="43">
   <image source="Tile/43.png" width="32" height="32"/>
  </tile>
  <tile id="44">
   <image source="Tile/44.png" width="32" height="32"/>
  </tile>
  <tile id="45">
   <image source="Tile/45.png" width="32" height="32"/>
  </tile>
  <tile id="46">
   <image source="Tile/46.png" width="32" height="32"/>
  </tile>
  <tile id="47">
   <image source="Tile/47.png" width="32" height="32"/>
  </tile>
  <tile id="48">
   <image source="Tile/48.png" width="32" height="32"/>
  </tile>
  <tile id="49">
   <image source="Tile/49.png" width="32" height="32"/>
  </tile>
  <tile id="50">
   <image source="Tile/50.png" width="32" height="32"/>
  </tile>
  <tile id="51">
   <image source="Tile/51.png" width="32" height="32"/>
  </tile>
  <tile id="52">
   <image source="Tile/52.png" width="32" height="32"/>
  </tile>
  <tile id="53">
   <image source="Tile/53.png" width="32" height="32"/>
  </tile>
  <tile id="54">
   <image source="Tile/54.png" width="32" height="32"/>
  </tile>
  <tile id="55">
   <image source="Tile/55.png" width="32" height="32"/>
  </tile>
  <tile id="56">
   <image source="Tile/56.png" width="32" height="32"/>
  </tile>
  <tile id="57">
   <image source="Tile/57.png" width="32" height="32"/>
  </tile>
  <tile id="58">
   <image source="Tile/58.png" width="32" height="32"/>
  </tile>
  <tile id="59">
   <image source="Tile/59.png" width="32" height="32"/>
  </tile>
  <tile id="60">
   <image source="Tile/60.png" width="32" height="32"/>
  </tile>
  <tile id="61">
   <image source="Tile/61.png" width="32" height="32"/>
  </tile>
  <tile id="62">
   <image source="Tile/62.png" width="32" height="32"/>
  </tile>
  <tile id="63">
   <image source="Tile/63.png" width="32" height="32"/>
  </tile>
  <tile id="64">
   <image source="Tile/64.png" width="32" height="32"/>
  </tile>
  <tile id="65">
   <image source="Tile/65.png" width="32" height="32"/>
  </tile>
  <tile id="66">
   <image source="Tile/66.png" width="32" height="32"/>
  </tile>
  <tile id="67">
   <image source="Tile/67.png" width="32" height="32"/>
  </tile>
  <tile id="68">
   <image source="Tile/68.png" width="32" height="32"/>
  </tile>
  <tile id="69">
   <image source="Tile/69.png" width="32" height="32"/>
  </tile>
  <tile id="70">
   <image source="Tile/70.png" width="32" height="32"/>
  </tile>
  <tile id="71">
   <image source="Tile/71.png" width="32" height="32"/>
  </tile>
  <tile id="72">
   <image source="Tile/72.png" width="32" height="32"/>
  </tile>
  <tile id="73">
   <image source="Tile/73.png" width="32" height="32"/>
  </tile>
  <tile id="74">
   <image source="Tile/74.png" width="32" height="32"/>
  </tile>
  <tile id="75">
   <image source="Tile/75.png" width="32" height="32"/>
  </tile>
  <tile id="76">
   <image source="Tile/76.png" width="32" height="32"/>
  </tile>
  <tile id="77">
   <image source="Tile/77.png" width="32" height="32"/>
  </tile>
  <tile id="78">
   <image source="Tile/78.png" width="32" height="32"/>
  </tile>
  <tile id="79">
   <image source="Tile/79.png" width="32" height="32"/>
  </tile>
  <tile id="80">
   <image source="Tile/80.png" width="32" height="32"/>
  </tile>
  <tile id="81">
   <image source="Tile/81.png" width="32" height="32"/>
  </tile>
  <tile id="82">
   <image source="Tile/82.png" width="32" height="32"/>
  </tile>
  <tile id="83">
   <image source="Tile/83.png" width="32" height="32"/>
  </tile>
  <tile id="84">
   <image source="Tile/84.png" width="32" height="32"/>
  </tile>
  <tile id="85">
   <image source="Tile/85.png" width="32" height="32"/>
  </tile>
  <tile id="86">
   <image source="Tile/86.png" width="32" height="32"/>
  </tile>
  <tile id="87">
   <image source="Tile/87.png" width="32" height="32"/>
  </tile>
  <tile id="88">
   <image source="Tile/88.png" width="32" height="32"/>
  </tile>
  <tile id="89">
   <image source="Tile/89.png" width="32" height="32"/>
  </tile>
  <tile id="90">
   <image source="Tile/90.png" width="32" height="32"/>
  </tile>
  <tile id="91">
   <image source="Tile/91.png" width="32" height="32"/>
  </tile>
  <tile id="92">
   <image source="Tile/92.png" width="32" height="32"/>
  </tile>
  <tile id="93">
   <image source="Tile/93.png" width="32" height="32"/>
  </tile>
  <tile id="94">
   <image source="Tile/94.png" width="32" height="32"/>
  </tile>
  <tile id="95">
   <image source="Tile/95.png" width="32" height="32"/>
  </tile>
  <tile id="96">
   <image source="Tile/96.png" width="32" height="32"/>
  </tile>
  <tile id="97">
   <image source="Tile/97.png" width="32" height="32"/>
  </tile>
  <tile id="98">
   <image source="Tile/98.png" width="32" height="32"/>
  </tile>
  <tile id="99">
   <image source="Tile/99.png" width="32" height="32"/>
  </tile>
  <tile id="100">
   <image source="Tile/100.png" width="32" height="32"/>
  </tile>
  <tile id="101">
   <image source="Tile/101.png" width="32" height="32"/>
  </tile>
  <tile id="102">
   <image source="Tile/102.png" width="32" height="32"/>
  </tile>
  <tile id="103">
   <image source="Tile/103.png" width="32" height="32"/>
  </tile>
  <tile id="104">
   <image source="Tile/104.png" width="32" height="32"/>
  </tile>
  <tile id="105">
   <image source="Tile/105.png" width="32" height="32"/>
  </tile>
  <tile id="106">
   <image source="Tile/106.png" width="32" height="32"/>
  </tile>
  <tile id="107">
   <image source="Enemy/BanzaiBill_0.png" width="128" height="128"/>
  </tile>
  <tile id="108">
   <image source="Enemy/BlueKoopaTroopa_0.png" width="32" height="54"/>
  </tile>
  <tile id="109">
   <image source="Enemy/BobOmb_0.png" width="24" height="30"/>
  </tile>
  <tile id="110">
   <image source="Enemy/BulletBill_0.png" width="32" height="28"/>
  </tile>
  <tile id="111">
   <image source="Enemy/BuzzyBeetle_0.png" width="32" height="32"/>
  </tile>
  <tile id="112">
   <image source="Enemy/FlyingGoomba_0.png" width="66" height="50"/>
  </tile>
  <tile id="113">
   <image source="Enemy/Goomba_0.png" width="32" height="32"/>
  </tile>
  <tile id="114">
   <image source="Enemy/GreenKoopaTroopa_0.png" width="32" height="54"/>
  </tile>
  <tile id="115">
   <image source="Enemy/JumpingPiranhaPlant_0.png" width="32" height="42"/>
  </tile>
  <tile id="116">
   <image source="Enemy/MontyMole_0.png" width="32" height="32"/>
  </tile>
  <tile id="117">
   <image source="Enemy/MummyBeetle_0.png" width="32" height="32"/>
  </tile>
  <tile id="118">
   <image source="Enemy/Muncher_0.png" width="32" height="30"/>
  </tile>
  <tile id="119">
   <image source="Enemy/PiranhaPlant_0.png" width="32" height="66"/>
  </tile>
  <tile id="120">
   <image source="Enemy/RedKoopaTroopa_0.png" width="32" height="54"/>
  </tile>
  <tile id="121">
   <image source="Enemy/Rex_2_0.png" width="40" height="64"/>
  </tile>
  <tile id="122">
   <image source="Enemy/Swooper_0.png" width="32" height="34"/>
  </tile>
  <tile id="123">
   <image source="Enemy/YellowKoopaTroopa_0.png" width="32" height="54"/>
  </tile>
  <tile id="124">
   <image source="Item/BeanstalkHead_0.png" width="32" height="32"/>
  </tile>
  <tile id="125">
   <image source="Item/Coin_0.png" width="24" height="32"/>
  </tile>
  <tile id="126">
   <image source="Item/CourseClearToken.png" width="64" height="32"/>
  </tile>
  <tile id="127">
   <image source="Item/YoshiCoin_0.png" width="32" height="50"/>
  </tile>
  <tile id="128">
   <image source="Item/BeanstalkHeadLoop.png" width="32" height="32"/>
  </tile>
  <tile id="129">
   <image source="Block/Cloud_0.png" width="32" height="32"/>
  </tile>
  <tile id="130">
   <image source="Block/Exclamation_0.png" width="32" height="32"/>
  </tile>
  <tile id="131">
   <image source="Block/EyesClosed_0.png" width="32" height="32"/>
  </tile>
  <tile id="132">
   <image source="Block/EyesOpened_0.png" width="32" height="32"/>
  </tile>
  <tile id="133">
   <image source="Block/Glass_0.png" width="32" height="32"/>
  </tile>
  <tile id="134">
   <image source="Block/Message_0.png" width="32" height="32"/>
  </tile>
  <tile id="135">
   <image source="Block/Question_0.png" width="32" height="32"/>
  </tile>
  <tile id="136">
   <image source="Block/Stone_0.png" width="32" height="32"/>
  </tile>
  <tile id="137">
   <image source="Block/Wood_0.png" width="32" height="32"/>
  </tile>
  <tile id="138">
   <image source="Item/1UpMushroom.png" width="32" height="32"/>
  </tile>
  <tile id="139">
   <image source="Item/3UpMoon.png" width="30" height="32"/>
  </tile>
  <tile id="140">
   <image source="Item/FireFlower_0.png" width="32" height="32"/>
  </tile>
  <tile id="141">
   <image source="Item/Mushroom.png" width="32" height="32"/>
  </tile>
  <tile id="142">
   <image source="Item/Star.png" width="30" height="32"/>
  </tile>
  <tile id="143">
   <image source="Block/1UpMushroomBlock.png" width="32" height="32"/>
  </tile>
  <tile id="144">
   <image source="Block/3UpMoonBlock.png" width="32" height="32"/>
  </tile>
  <tile id="145">
   <image source="Block/FireFlowerBlock.png" width="32" height="32"/>
  </tile>
  <tile id="146">
   <image source="Block/MushroomBlock.png" width="32" height="32"/>
  </tile>
  <tile id="147">
   <image source="Block/StarBlock.png" width="32" height="32"/>
  </tile>
  <tile id="148">
   <image source="Block/InvisivleCoinBlock.png" width="32" height="32"/>
  </tile>
 </tileset>
 <tileset firstgid="150" source="MarioSet.tsx"/>
 <layer id="1" name="Tile Layer 1" width="200" height="50">
  <data encoding="csv">
0,0,0,0,0,0,0,0,0,0,0,0,0,0,0,0,0,0,0,0,0,0,0,0,0,0,0,0,0,0,0,0,0,0,0,0,0,0,0,0,0,0,0,0,0,0,0,0,0,0,0,0,0,0,0,0,0,0,0,0,0,0,0,0,0,0,0,0,0,0,0,0,0,0,0,0,0,0,0,0,0,0,0,0,0,0,0,0,0,0,0,0,0,0,0,0,0,0,0,0,0,0,0,0,0,0,0,0,0,0,0,0,0,0,0,0,0,0,0,0,0,0,0,0,0,0,0,0,0,0,0,0,0,0,0,0,0,0,0,0,0,0,0,0,0,0,0,0,0,0,0,0,0,0,0,0,0,0,0,0,0,0,0,0,0,0,0,0,0,0,0,0,0,0,0,0,0,0,0,0,0,0,0,0,0,0,0,0,0,0,0,0,0,0,0,0,0,0,0,0,
0,0,0,0,0,0,0,0,0,0,0,0,0,0,0,0,0,0,0,0,0,0,0,0,0,0,0,0,0,0,0,0,0,0,0,0,0,0,0,0,0,0,0,0,0,0,0,0,0,0,0,0,0,0,0,0,0,0,0,0,0,0,0,0,0,0,0,0,0,0,0,0,0,0,0,0,0,0,0,0,0,0,0,0,0,0,0,0,0,0,0,0,0,0,0,0,0,0,0,0,0,0,0,0,0,0,0,0,0,0,0,0,0,0,0,0,0,0,0,0,0,0,0,0,0,0,0,0,0,0,0,0,0,0,0,0,0,0,0,0,0,0,0,0,0,0,0,0,0,0,0,0,0,0,0,0,0,0,0,0,0,0,0,0,0,0,0,0,0,0,0,0,0,0,0,0,0,0,0,0,0,0,0,0,0,0,0,0,0,0,0,0,0,0,0,0,0,0,0,0,
0,0,0,0,0,0,0,0,0,0,0,0,0,0,0,0,0,0,0,0,0,0,0,0,0,0,0,0,0,0,0,0,0,0,0,0,0,0,0,0,0,0,0,0,0,0,0,0,0,0,0,0,0,0,0,0,0,0,0,0,0,0,0,0,0,0,0,0,0,0,0,0,0,0,0,0,0,0,0,0,0,0,0,0,0,0,0,0,0,0,0,0,0,0,0,0,0,0,0,0,0,0,0,0,0,0,0,0,0,0,0,0,0,0,0,0,0,0,0,0,0,0,0,0,0,0,0,0,0,0,0,0,0,0,0,0,0,0,0,0,0,0,0,0,0,0,0,0,0,0,0,0,0,0,0,0,0,0,0,0,0,0,0,0,0,0,0,0,0,0,0,0,0,0,0,0,0,0,0,0,0,0,0,0,0,0,0,0,0,0,0,0,0,0,0,0,0,0,0,0,
0,0,0,0,0,0,0,0,0,0,0,0,0,0,0,0,0,0,0,0,0,0,0,0,0,0,0,0,0,0,0,0,0,0,0,0,0,0,0,0,0,0,0,0,0,0,0,0,0,0,0,0,0,0,0,0,0,0,0,0,0,0,0,0,0,0,0,0,0,0,0,0,0,0,0,0,0,0,0,0,0,0,0,0,0,0,0,0,0,0,0,0,0,0,0,0,0,0,0,0,0,0,0,0,0,0,0,0,0,0,0,0,0,0,0,0,0,0,0,0,0,0,0,0,0,0,0,0,0,0,0,0,0,0,0,0,0,0,0,0,0,0,0,0,0,0,0,0,0,0,0,0,0,0,0,0,0,0,0,0,0,0,0,0,0,0,0,0,0,0,0,0,0,0,0,0,0,0,0,0,0,0,0,0,0,0,0,0,0,0,0,0,0,0,0,0,0,0,0,0,
0,0,0,0,0,0,0,0,0,0,0,0,0,0,0,0,0,0,0,0,0,0,0,0,0,0,0,0,0,0,0,0,0,0,0,0,0,0,0,0,0,0,0,0,0,0,0,0,0,0,0,0,0,0,0,0,0,0,0,0,0,0,0,0,0,0,0,0,0,0,0,0,0,0,0,0,0,0,0,0,0,0,0,0,0,0,0,0,0,0,0,0,0,0,0,0,0,0,0,0,0,0,0,0,0,0,0,0,0,0,0,0,0,0,0,0,0,0,0,0,0,0,0,0,0,0,0,0,0,0,0,0,0,0,0,0,0,0,0,0,0,0,0,0,0,0,0,0,0,0,0,0,0,0,0,0,0,0,0,0,0,0,0,0,0,0,0,0,0,0,0,0,0,0,0,0,0,0,0,0,0,0,0,0,0,0,0,0,0,0,0,0,0,0,0,0,0,0,0,0,
0,0,0,0,0,0,0,0,0,0,0,0,0,0,0,0,0,0,0,0,0,0,0,0,0,0,0,0,0,0,0,0,0,0,0,0,0,0,0,0,0,0,0,0,0,0,0,0,0,0,0,0,0,0,0,0,0,0,0,0,0,0,0,0,0,0,0,0,0,0,0,0,0,0,0,0,0,0,0,0,0,0,0,0,0,0,0,0,0,0,0,0,0,0,0,0,0,0,0,0,0,0,0,0,0,0,0,0,0,0,0,0,0,0,0,0,0,0,0,0,0,0,0,0,0,0,0,0,0,0,0,0,0,0,0,0,0,0,0,0,0,0,0,0,0,0,0,0,0,0,0,0,0,0,0,0,0,0,0,0,0,0,0,0,0,0,0,0,0,0,0,0,0,0,0,0,0,0,0,0,0,0,0,0,0,0,0,0,0,0,0,0,0,0,0,0,0,0,0,0,
0,0,0,0,0,0,0,0,0,0,0,0,0,0,0,0,0,0,0,0,0,0,0,0,0,0,0,0,0,0,0,0,0,0,0,0,0,0,0,0,0,0,0,0,0,0,0,0,0,0,0,0,0,0,0,0,0,0,0,0,0,0,0,0,0,0,0,0,0,0,0,0,0,0,0,0,0,0,0,0,0,0,0,0,0,0,0,0,0,0,0,0,0,0,0,0,0,0,0,0,0,0,0,0,0,0,0,0,0,0,0,0,0,0,0,0,0,0,0,0,0,0,0,0,0,0,0,0,0,0,0,0,0,0,0,0,0,0,0,0,0,0,0,0,0,0,0,0,0,0,0,0,0,0,0,0,0,0,0,0,0,0,0,0,0,0,0,0,0,0,0,0,0,0,0,0,0,0,0,0,0,0,0,0,0,0,0,0,0,0,0,0,0,0,0,0,0,0,0,0,
0,0,0,0,0,0,0,0,0,0,0,0,0,0,0,0,0,0,0,0,0,0,0,0,0,0,0,0,0,0,0,0,0,0,0,0,0,0,0,0,0,0,0,0,0,0,0,0,0,0,0,0,0,0,0,0,0,0,0,0,0,0,0,0,0,0,0,0,0,0,0,0,0,0,0,0,0,0,0,0,0,0,0,0,0,0,0,0,0,0,0,0,0,0,0,0,0,0,0,0,0,0,0,0,0,0,0,0,0,0,0,0,0,0,0,0,0,0,0,0,0,0,0,0,0,0,0,0,0,0,0,0,0,0,0,0,0,0,0,0,0,0,0,0,0,0,0,0,0,0,0,0,0,0,0,0,0,0,0,0,0,0,0,0,0,0,0,0,0,0,0,0,0,0,0,0,0,0,0,0,0,0,0,0,0,0,0,0,0,0,0,0,0,0,0,0,0,0,0,0,
0,0,0,0,0,0,0,0,0,0,0,0,0,0,0,0,0,0,0,0,0,0,0,0,0,0,0,0,0,0,0,0,0,0,0,0,0,0,0,0,0,0,0,0,0,0,0,0,0,0,0,0,0,0,0,0,0,0,0,0,0,0,0,0,0,0,0,0,0,0,0,0,0,0,0,0,0,0,0,0,0,0,0,0,0,0,0,0,0,0,0,0,0,0,0,0,0,0,0,0,0,0,0,0,0,0,0,0,0,0,0,0,0,0,0,0,0,0,0,0,0,0,0,0,0,0,0,0,0,0,0,0,0,0,0,0,0,0,0,0,0,0,0,0,0,0,0,0,0,0,0,0,0,0,0,0,0,0,0,0,0,0,0,0,0,0,0,0,0,0,0,0,0,0,0,0,0,0,0,0,0,0,0,0,0,0,0,0,0,0,0,0,0,0,0,0,0,0,0,0,
0,0,0,0,0,0,0,0,0,0,0,0,0,0,0,0,0,0,0,0,0,0,0,0,0,0,0,0,0,0,0,0,0,0,0,0,0,0,0,0,0,0,0,0,0,0,0,0,0,0,0,0,0,0,0,0,0,0,0,0,0,0,0,0,0,0,0,0,0,0,0,0,0,0,0,0,0,0,0,0,0,0,0,0,0,0,0,0,0,0,0,0,0,0,0,0,0,0,0,0,0,0,0,0,0,0,0,0,0,0,0,0,0,0,0,0,0,0,0,0,0,0,0,0,0,0,0,0,0,0,0,0,0,0,0,0,0,0,0,0,0,0,0,0,0,0,0,0,0,0,0,0,0,0,0,0,0,0,0,0,0,0,0,0,0,0,0,0,0,0,0,0,0,0,0,0,0,0,0,0,0,0,0,0,0,0,0,0,0,0,0,0,0,0,0,0,0,0,0,0,
0,0,0,0,0,0,0,0,0,0,0,0,0,0,0,0,0,0,0,0,0,0,0,0,0,0,0,0,0,0,0,0,0,0,0,0,0,0,0,0,0,0,0,0,0,0,0,0,0,0,0,0,0,0,0,0,0,0,0,0,0,0,0,0,0,0,0,0,0,0,0,0,0,0,0,0,0,0,0,0,0,0,0,0,0,0,0,0,0,0,0,0,0,0,0,0,0,0,0,0,0,0,0,0,0,0,0,0,0,0,0,0,0,0,0,0,0,0,0,0,0,0,0,0,0,0,0,0,0,0,0,0,0,0,0,0,0,0,0,0,0,0,0,0,0,0,0,0,0,0,0,0,0,0,0,0,0,0,0,0,0,0,0,0,0,0,0,0,0,0,0,0,0,0,0,0,0,0,0,0,0,0,0,0,0,0,0,0,0,0,0,0,0,0,0,0,0,0,0,0,
0,0,0,0,0,0,0,0,0,0,0,0,0,0,0,0,0,0,0,0,0,0,0,0,0,0,0,0,0,0,0,0,0,0,0,0,0,0,0,0,0,0,0,0,0,0,0,0,0,0,0,0,0,0,0,0,0,0,0,0,0,0,0,0,0,0,0,0,0,0,0,0,0,0,0,0,0,0,0,0,0,0,0,0,0,0,0,0,0,0,0,0,0,0,0,0,0,0,0,0,0,0,0,0,0,0,0,0,0,0,0,0,0,0,0,0,0,0,0,0,0,0,0,0,0,0,0,0,0,0,0,0,0,0,0,0,0,0,0,0,0,0,0,0,0,0,0,0,0,0,0,0,0,0,0,0,0,0,0,0,0,0,0,0,0,0,0,0,0,0,0,0,0,0,0,0,0,0,0,0,0,0,0,0,0,0,0,0,0,0,0,0,0,0,0,0,0,0,0,0,
0,0,0,0,0,0,0,0,0,0,0,0,0,0,0,0,0,0,0,0,0,0,0,0,0,0,0,0,0,0,0,0,0,0,0,0,0,0,0,0,0,0,0,0,0,0,0,0,0,0,0,0,0,0,0,0,0,0,0,0,0,0,0,0,0,0,0,0,0,0,0,0,0,0,0,0,0,0,0,0,0,0,0,0,0,0,0,0,0,0,0,0,0,0,0,0,0,0,0,0,0,0,0,0,0,0,0,0,0,0,0,0,0,0,0,0,0,0,0,0,0,0,0,0,0,0,0,0,0,0,0,0,0,0,0,0,0,0,0,0,0,0,0,0,0,0,0,0,0,0,0,0,0,0,0,0,0,0,0,0,0,0,0,0,0,0,0,0,0,0,0,0,0,0,0,0,0,0,0,0,0,0,0,0,0,0,0,0,0,0,0,0,0,0,0,0,0,0,0,0,
0,0,0,0,0,0,0,0,0,0,0,0,0,0,0,0,0,0,0,0,0,0,0,0,0,0,0,0,0,0,0,0,0,0,0,0,0,0,0,0,0,0,0,0,0,0,0,0,0,0,0,0,0,0,0,0,0,0,0,0,0,0,0,0,0,0,0,0,0,0,0,0,0,0,0,0,0,0,0,0,0,0,0,0,0,0,0,0,0,0,0,0,0,0,0,0,0,0,0,0,0,0,0,0,0,0,0,0,0,0,0,0,0,0,0,0,0,0,0,0,0,0,0,0,0,0,0,0,0,0,0,0,0,0,0,0,0,0,0,0,0,0,0,0,0,0,0,0,0,0,0,0,0,0,0,0,0,0,0,0,0,0,0,0,0,0,0,0,0,0,0,0,0,0,0,0,0,0,0,0,0,0,0,0,0,0,0,0,0,0,0,0,0,0,0,0,0,0,0,0,
0,0,0,0,0,0,0,0,0,0,0,0,0,0,0,0,0,0,0,0,0,0,0,0,0,0,0,0,0,0,0,0,0,0,0,0,0,0,0,0,0,0,0,0,0,0,0,0,0,0,0,0,0,0,0,0,0,0,0,0,0,0,0,0,0,0,0,0,0,0,0,0,0,0,0,0,0,0,0,0,0,0,0,0,0,0,0,0,0,0,0,0,0,0,0,0,0,0,0,0,0,0,0,0,0,0,0,0,0,0,0,0,0,0,0,0,0,0,0,0,0,0,0,0,0,0,0,0,0,0,0,0,0,0,0,0,0,0,0,0,0,0,0,0,0,0,0,0,0,0,0,0,0,0,0,0,0,0,0,0,0,0,0,0,0,0,0,0,0,0,0,0,0,0,0,0,0,0,0,0,0,0,0,0,0,0,0,0,0,0,0,0,0,0,0,0,0,0,0,0,
0,0,0,0,0,0,0,0,0,0,0,0,0,0,0,0,0,0,0,0,0,0,0,0,0,0,0,0,0,0,0,0,0,0,0,0,0,0,0,0,0,0,0,0,0,0,0,0,0,0,0,0,0,0,0,0,0,0,0,0,0,0,0,0,0,0,0,0,0,0,0,0,0,0,0,0,0,0,0,0,0,0,0,0,0,0,0,0,0,0,0,0,0,0,0,0,0,0,0,0,0,0,0,0,0,0,0,0,0,0,0,0,0,0,0,0,0,0,0,0,0,0,0,0,0,0,0,0,0,0,0,0,0,0,0,0,0,0,0,0,0,0,0,0,0,0,0,0,0,0,0,0,0,0,0,0,0,0,0,0,0,0,0,0,0,0,0,0,0,0,0,0,0,0,0,0,0,0,0,0,0,0,0,0,0,0,0,0,0,0,0,0,0,0,0,0,0,0,0,0,
0,0,0,0,0,0,0,0,0,0,0,0,0,0,0,0,0,0,0,0,0,0,0,0,0,0,0,0,0,0,0,0,0,0,0,0,0,0,0,0,0,0,0,0,0,0,0,0,0,0,0,0,0,0,0,0,0,0,0,0,0,0,0,0,0,0,0,0,0,0,0,0,0,0,0,0,0,0,0,0,0,0,0,0,0,0,0,0,0,0,0,0,0,0,0,0,0,0,0,0,0,0,0,0,0,0,0,0,0,0,0,0,0,0,0,0,0,0,0,0,0,0,0,0,0,0,0,0,0,0,0,0,0,0,0,0,0,0,0,0,0,0,0,0,0,0,0,0,0,0,0,0,0,0,0,0,0,0,0,0,0,0,0,0,0,0,0,0,0,0,0,0,0,0,0,0,0,0,0,0,0,0,0,0,0,0,0,0,0,0,0,0,0,0,0,0,0,0,0,0,
0,0,0,0,0,0,0,0,0,0,0,0,0,0,0,0,0,0,0,0,0,0,0,0,0,0,0,0,0,0,0,0,0,0,0,0,0,0,0,0,0,0,0,0,0,0,0,0,0,0,0,0,0,0,0,0,0,0,0,0,0,0,0,0,0,0,0,0,0,0,0,0,0,0,0,0,0,0,0,0,0,0,0,0,0,0,0,0,0,0,0,0,0,0,0,0,0,0,0,0,0,0,0,0,0,0,0,0,0,0,0,0,0,0,0,0,0,0,0,0,0,0,0,0,0,0,0,0,0,0,0,0,0,0,0,0,0,0,0,0,0,0,0,0,0,0,0,0,0,0,0,0,0,0,0,0,0,0,0,0,0,0,0,0,0,0,0,0,0,0,0,0,0,0,0,0,0,0,0,0,0,0,0,0,0,0,0,0,0,0,0,0,0,0,0,0,0,0,0,0,
0,0,0,0,0,0,0,0,0,0,0,0,0,0,0,0,0,0,0,0,0,0,0,0,0,0,0,0,0,0,0,0,0,0,0,0,0,0,0,0,0,0,0,0,0,0,0,0,0,0,0,0,0,0,0,0,0,0,0,0,0,0,0,0,0,0,0,0,0,0,0,0,0,0,0,0,0,0,0,0,0,0,0,0,0,0,0,0,0,0,0,0,0,0,0,0,0,0,0,0,0,0,0,0,0,0,0,0,0,0,0,0,0,0,0,0,0,0,0,0,0,0,0,0,0,0,0,0,0,0,0,0,0,0,0,0,0,0,0,0,0,0,0,0,0,0,0,0,0,0,0,0,0,0,0,0,0,0,0,0,0,0,0,0,0,0,0,0,0,0,0,0,0,0,0,0,0,0,0,0,0,0,0,0,0,0,0,0,0,0,0,0,0,0,0,0,0,0,0,0,
0,0,0,0,0,0,0,0,0,0,0,0,0,0,0,0,0,0,0,0,0,0,0,0,0,0,0,0,0,0,0,0,0,0,0,0,0,0,0,0,0,0,0,0,0,0,0,0,0,0,0,0,0,0,0,0,0,0,0,0,0,0,0,0,0,0,0,0,0,0,0,0,0,0,0,0,0,0,0,0,0,0,0,0,0,0,0,0,0,0,0,0,0,0,0,0,0,0,0,0,0,0,0,0,0,0,0,0,0,0,0,0,0,0,0,0,0,0,0,0,0,0,0,0,0,0,0,0,0,0,0,0,0,0,0,0,0,0,0,0,0,0,0,0,0,0,0,0,0,0,0,0,0,0,0,0,0,0,0,0,0,0,0,0,0,0,0,0,0,0,0,0,0,0,0,0,0,0,0,0,0,0,0,0,0,0,0,0,0,0,0,0,0,0,0,0,0,0,0,0,
0,0,0,0,0,0,0,0,0,0,0,0,0,0,0,0,0,0,0,0,0,0,0,0,0,0,0,0,0,0,0,0,0,0,0,0,0,0,0,0,0,0,0,0,0,0,0,0,0,0,0,0,0,0,0,0,0,0,0,0,0,0,0,0,0,0,0,0,0,0,0,0,0,0,0,0,0,0,0,0,0,0,0,0,0,0,0,0,0,0,0,0,0,0,0,0,0,0,0,0,0,0,0,0,0,0,0,0,0,0,0,0,0,0,0,0,0,0,0,0,0,0,0,0,0,0,0,0,0,0,0,0,0,0,0,0,0,0,0,0,0,0,0,0,0,0,0,0,0,0,0,0,0,0,0,0,0,0,0,0,0,0,0,0,0,0,0,0,0,0,0,0,0,0,0,0,0,0,0,0,0,0,0,0,0,0,0,0,0,0,0,0,0,0,0,0,0,0,0,0,
0,0,0,0,0,0,0,0,0,0,0,0,0,0,0,0,0,0,0,0,0,0,0,0,0,0,0,0,0,0,0,0,0,0,0,0,0,0,0,0,0,0,0,0,0,0,0,0,0,0,0,0,0,0,0,0,0,0,0,0,0,0,0,0,0,0,0,0,0,0,0,0,0,0,0,0,0,0,0,0,0,0,0,0,0,0,0,0,0,0,0,0,0,0,0,0,0,0,0,0,0,0,0,0,0,0,0,0,0,0,0,0,0,0,0,0,0,0,0,0,0,0,0,0,0,0,0,0,0,0,0,0,0,0,0,0,0,0,0,0,0,0,0,0,0,0,0,0,0,0,0,0,0,0,0,0,0,0,0,0,0,0,0,0,0,0,0,0,0,0,0,0,0,0,0,0,0,0,0,0,0,0,0,0,0,0,0,0,0,0,0,0,0,0,0,0,0,0,0,0,
0,0,0,0,0,0,0,0,0,0,0,0,0,0,0,0,0,0,0,0,0,0,0,0,0,0,0,0,0,0,0,0,0,0,0,0,0,0,0,0,0,0,0,0,0,0,0,0,0,0,0,0,0,0,0,0,0,0,0,0,0,0,0,0,0,0,0,0,0,0,0,0,0,0,0,0,0,0,0,0,0,0,0,0,0,0,0,0,0,0,0,0,0,0,0,0,0,0,0,0,0,0,0,0,0,0,0,0,0,0,0,0,0,0,0,0,0,0,0,0,0,0,0,0,0,0,0,0,0,0,0,0,0,0,0,0,0,0,0,0,0,0,0,0,0,0,0,0,0,0,0,0,0,0,0,0,0,0,0,0,0,0,0,0,0,0,0,0,0,0,0,0,0,0,0,0,0,0,0,0,0,0,0,0,0,0,0,0,0,0,0,0,0,0,0,0,0,0,0,0,
0,0,0,0,0,0,0,0,0,0,0,0,0,0,0,0,0,0,0,0,0,0,0,0,0,0,0,0,0,0,0,0,0,0,0,0,0,0,0,0,0,0,0,0,0,0,0,0,0,0,0,0,0,0,0,0,0,0,0,0,0,0,0,0,0,0,0,0,0,0,0,0,0,0,0,0,0,0,0,0,0,0,0,0,0,0,0,0,0,0,0,0,0,0,0,0,0,0,0,0,0,0,0,0,0,0,0,0,0,0,0,0,0,0,0,0,0,0,0,0,0,0,0,0,0,0,0,0,0,0,0,0,0,0,0,0,0,0,0,0,0,0,0,0,0,0,0,0,0,0,0,0,0,0,0,0,0,0,0,0,0,0,0,0,0,0,0,0,0,0,0,0,0,0,0,0,0,0,0,0,0,0,0,0,0,0,0,0,0,0,0,0,0,0,0,0,0,0,0,0,
0,0,0,0,0,0,0,0,0,0,0,0,0,0,0,0,0,0,0,0,0,0,0,0,0,0,0,0,0,0,0,0,0,0,0,0,0,0,0,0,0,0,0,0,0,0,0,0,0,0,0,0,0,0,0,0,0,0,0,0,0,0,0,0,0,0,0,0,0,0,0,0,0,0,0,0,0,0,0,0,0,0,0,0,0,0,0,0,0,0,0,0,0,0,0,0,0,0,0,0,0,0,0,0,0,0,0,0,0,0,0,0,0,0,0,0,0,0,0,0,0,0,0,0,0,0,0,0,0,0,0,0,0,0,0,0,0,0,0,0,0,0,0,0,0,0,0,0,0,0,0,0,0,0,0,0,0,0,0,0,0,0,0,0,0,0,0,0,0,0,0,0,0,0,0,0,0,0,0,0,0,0,0,0,0,0,0,0,0,0,0,0,0,0,0,0,0,0,0,0,
0,0,0,0,0,0,0,0,0,0,0,0,0,0,0,0,0,0,0,0,0,0,0,0,0,0,0,0,0,0,0,0,0,0,0,0,0,0,0,0,0,0,0,0,0,0,0,0,0,0,0,0,0,0,0,0,0,0,0,0,0,0,0,0,0,0,0,0,0,0,0,0,0,0,0,0,0,0,0,0,0,0,0,0,0,0,0,0,0,0,0,0,0,0,0,0,0,0,0,0,0,0,0,0,0,0,0,0,0,0,0,0,0,0,0,0,0,0,0,0,0,0,0,0,0,0,0,0,0,0,0,0,0,0,0,0,0,0,0,0,0,0,0,0,0,0,0,0,0,0,0,0,0,0,0,0,0,0,0,0,0,0,0,0,0,0,0,0,0,0,0,0,0,0,0,0,0,0,0,0,0,0,0,0,0,0,0,0,0,0,0,0,0,0,0,0,0,0,0,0,
0,0,0,0,0,0,0,0,0,0,0,0,0,0,0,0,0,0,0,0,0,0,0,0,0,0,0,0,0,0,0,0,0,0,0,0,0,0,0,0,0,0,0,0,0,0,0,0,0,0,0,0,0,0,0,0,0,0,0,0,0,0,0,0,0,0,0,0,0,0,0,0,0,0,0,0,0,0,0,0,0,0,0,0,0,0,0,0,0,0,0,0,0,0,0,0,0,0,0,0,0,0,0,0,0,0,0,0,0,0,0,0,0,0,0,0,0,0,0,0,0,0,0,0,0,0,0,0,0,0,0,0,0,0,0,0,0,0,0,0,0,0,0,0,0,0,0,0,0,0,0,0,0,0,0,0,0,0,0,0,0,0,0,0,0,0,0,0,0,0,0,0,0,0,0,0,0,0,0,0,0,0,0,0,0,0,0,0,0,0,0,0,0,0,0,0,0,0,0,0,
0,0,0,0,0,0,0,0,0,0,0,0,0,0,0,0,0,0,0,0,0,0,0,0,0,0,0,0,0,0,0,0,0,0,0,0,0,0,0,0,0,0,0,0,0,0,0,0,0,0,0,0,0,0,0,0,0,0,0,0,0,0,0,0,0,0,0,0,0,0,0,0,0,0,0,0,0,0,0,0,0,0,0,0,0,0,0,0,0,0,0,0,0,0,0,0,0,0,0,0,0,0,0,0,0,0,0,0,0,0,0,0,0,0,0,0,0,0,0,0,0,0,0,0,0,0,0,0,0,0,0,0,0,0,0,0,0,0,0,0,0,0,0,0,0,0,0,0,0,0,0,0,0,0,0,0,0,0,0,0,0,0,0,0,0,0,0,0,0,0,0,0,0,0,0,0,0,0,0,0,0,0,0,0,0,0,0,0,0,0,0,0,0,0,0,0,0,0,0,0,
0,0,0,0,0,0,0,0,0,0,0,0,0,0,0,0,0,0,0,0,0,0,0,0,0,0,0,0,0,0,0,0,0,0,0,0,0,0,0,0,0,0,0,0,0,0,0,0,0,0,0,0,0,0,0,0,0,0,0,0,0,0,0,0,0,0,0,0,0,0,0,0,0,0,0,0,0,0,0,0,0,0,0,0,0,0,0,0,0,0,0,0,0,0,0,0,0,0,0,0,0,0,0,0,0,0,0,0,0,0,0,0,0,0,0,0,0,0,0,0,0,0,0,0,0,0,0,0,0,0,0,0,0,0,0,0,0,0,0,0,0,0,0,0,0,0,0,0,0,0,0,0,0,0,0,0,0,0,0,0,0,0,0,0,0,0,0,0,0,0,0,0,0,0,0,0,0,0,0,0,0,0,0,0,0,0,0,0,0,0,0,0,0,0,0,0,0,0,0,0,
0,0,0,0,0,0,0,0,0,0,0,0,0,0,0,0,0,0,0,0,0,0,0,0,0,0,0,0,0,0,0,0,0,0,0,0,0,0,0,0,0,0,0,0,0,0,0,0,0,0,0,0,0,0,0,0,0,0,0,0,0,0,0,0,0,0,0,0,0,0,0,0,0,0,0,0,0,0,0,0,0,0,0,0,0,0,0,0,0,0,0,0,0,0,0,0,0,0,0,0,0,0,0,0,0,0,0,0,0,0,0,0,0,0,0,0,0,0,0,0,0,0,0,0,0,0,0,0,0,0,0,0,0,0,0,0,0,0,0,0,0,0,0,0,0,0,0,0,0,0,0,0,0,0,0,0,0,0,0,0,0,0,0,0,0,0,0,0,0,0,0,0,0,0,0,0,0,0,0,0,0,0,0,0,0,0,0,0,0,0,0,0,0,0,0,0,0,0,0,0,
0,0,0,0,0,0,0,0,0,0,0,0,0,0,0,0,0,0,0,0,0,0,0,0,0,0,0,0,0,0,0,0,0,0,0,0,0,0,0,0,0,0,0,0,0,0,0,0,0,0,0,0,0,0,0,0,0,0,0,0,0,0,0,0,0,0,0,0,0,0,0,0,0,0,0,0,0,0,0,0,0,0,0,0,0,0,0,0,0,0,0,0,0,0,0,0,0,0,0,0,0,0,0,0,0,0,0,0,0,0,0,0,0,0,0,0,0,0,0,0,0,0,0,0,0,0,0,0,0,0,0,0,0,0,0,0,0,0,0,0,0,0,0,0,0,0,0,0,0,0,0,0,0,0,0,0,0,0,0,0,0,0,0,0,0,0,0,0,0,0,0,0,0,0,0,0,0,0,0,0,0,0,0,0,0,0,0,0,0,0,0,0,0,0,0,0,0,0,0,0,
0,0,0,0,0,0,0,0,0,0,0,0,0,0,0,0,0,0,0,0,0,0,0,0,0,0,0,0,0,0,0,0,0,0,0,0,0,0,0,0,0,0,0,0,0,0,0,0,0,0,0,0,0,0,0,0,0,0,0,0,0,0,0,0,0,0,0,0,0,0,0,0,0,0,0,0,0,0,0,0,0,0,0,0,0,0,0,0,0,0,0,0,0,0,0,0,0,0,0,0,0,0,0,0,0,0,0,0,0,0,0,0,0,0,0,0,0,0,0,0,0,0,0,0,0,0,0,0,0,0,0,0,0,0,0,0,0,0,0,0,0,0,0,0,0,0,0,0,0,0,0,0,0,0,0,0,0,0,0,0,0,0,0,0,0,0,0,0,0,0,0,0,0,0,0,0,0,0,0,0,0,0,0,0,0,0,0,0,0,0,0,0,0,0,0,0,0,0,0,0,
0,0,0,0,0,0,0,0,0,0,0,0,0,0,0,0,0,0,0,0,0,0,0,0,0,0,0,0,0,0,0,0,0,0,0,0,0,0,0,0,0,0,0,0,0,0,0,0,0,0,0,0,0,0,0,0,0,0,0,0,0,0,0,0,0,0,0,0,0,0,0,0,0,0,0,0,0,0,0,0,0,0,0,0,0,0,0,0,0,0,0,0,0,0,0,0,0,0,0,0,0,0,0,0,0,0,0,0,0,0,0,0,0,0,0,0,0,0,0,0,0,0,0,0,0,0,0,0,0,0,0,0,0,0,0,0,0,0,0,0,0,0,0,0,0,0,0,0,0,0,0,0,0,0,0,0,0,0,0,0,0,0,0,0,0,0,0,0,0,0,0,0,0,0,0,0,0,0,0,0,0,0,0,0,0,0,0,0,0,0,0,0,0,0,0,0,0,0,0,0,
0,0,0,0,0,0,0,0,0,0,0,0,0,0,0,0,0,0,0,0,0,0,0,0,0,0,0,0,0,0,0,0,0,0,0,0,0,0,0,0,0,0,0,0,0,0,0,0,0,0,0,0,0,0,0,0,0,0,0,0,0,0,0,0,0,0,0,0,0,0,0,0,0,0,0,0,0,0,0,0,0,0,0,0,0,0,0,0,0,0,0,0,0,0,0,0,0,0,0,0,0,0,0,0,0,0,0,0,0,0,0,0,0,0,0,0,0,0,0,0,0,0,0,0,0,0,0,0,0,0,0,0,0,0,0,0,0,0,0,0,0,0,0,0,0,0,0,0,0,0,0,0,0,0,0,0,0,0,0,0,0,0,0,0,0,0,0,0,0,0,0,0,0,0,0,0,0,0,0,0,0,0,0,0,0,0,0,0,0,0,0,0,0,0,0,0,0,0,0,0,
0,0,0,0,0,0,0,0,0,0,0,0,0,0,0,0,0,0,0,0,0,0,0,0,0,0,0,0,0,0,0,0,0,0,0,0,0,0,0,0,0,0,0,0,0,0,0,0,0,0,0,0,0,0,0,0,0,0,0,0,0,0,0,0,0,0,0,0,0,0,0,0,0,0,0,0,0,0,0,0,0,0,0,0,0,0,0,0,0,0,0,0,0,0,0,0,0,0,0,0,0,0,0,0,0,0,0,0,0,0,0,0,0,0,0,0,0,0,0,0,0,0,0,0,0,0,0,0,0,0,0,0,0,0,0,0,0,0,0,0,0,0,0,0,0,0,0,0,0,0,0,0,0,0,0,0,0,0,0,0,0,0,0,0,0,0,0,0,0,0,0,0,0,0,0,0,0,0,0,0,0,0,0,0,0,0,0,0,0,0,0,0,0,0,0,0,0,0,0,0,
0,0,0,0,0,0,0,0,0,0,0,0,0,0,0,0,0,0,0,0,0,0,0,0,0,0,0,0,0,0,0,0,0,0,0,0,0,0,0,0,0,0,0,0,0,0,0,0,0,0,0,0,0,0,0,0,0,0,0,0,0,0,0,0,0,0,0,0,0,0,0,0,0,0,0,0,0,0,0,0,0,0,0,0,0,0,0,0,0,0,0,0,0,0,0,0,0,0,0,0,0,0,0,0,0,0,0,0,0,0,0,0,0,0,0,0,0,0,0,0,0,0,0,0,0,0,0,0,0,0,0,0,0,0,0,0,0,0,0,0,0,0,0,0,0,0,0,0,0,0,0,0,0,0,0,0,0,0,0,0,0,0,0,0,0,0,0,0,0,0,0,0,0,0,0,0,0,0,0,0,0,0,0,0,0,0,0,0,0,0,0,0,0,0,0,0,0,0,0,0,
0,0,0,0,0,0,0,0,0,0,0,0,0,0,0,0,0,0,0,0,0,0,0,0,0,0,0,0,0,0,0,0,0,0,0,0,0,0,0,0,0,0,0,0,0,0,0,0,0,0,0,0,0,0,0,0,0,0,0,0,0,0,0,0,0,0,0,0,0,0,0,0,0,0,0,0,0,0,0,0,0,0,0,0,0,0,0,0,0,0,0,0,0,0,0,0,0,0,0,0,0,0,0,0,0,0,0,0,0,0,0,0,0,0,0,0,0,0,0,0,0,0,0,0,0,0,0,0,0,0,0,0,0,0,0,0,0,0,0,0,0,0,0,0,0,0,0,0,0,0,0,0,0,0,0,0,0,0,0,0,0,0,0,0,0,0,0,0,0,0,0,0,0,0,0,0,0,0,0,0,0,0,0,0,0,0,0,0,0,0,0,0,0,0,0,0,0,0,0,0,
0,0,0,0,0,0,0,0,0,0,0,0,0,0,0,0,0,0,0,0,0,0,0,0,0,0,0,0,0,0,0,0,0,0,0,0,0,0,0,0,0,0,0,0,0,0,0,0,0,0,0,0,0,0,0,0,0,0,0,0,0,0,0,0,0,0,0,0,0,0,0,0,0,0,0,0,0,0,0,0,0,0,0,0,0,0,0,0,0,0,0,0,0,0,0,0,0,0,0,0,0,0,0,0,0,0,0,0,0,0,0,0,0,0,0,0,0,0,0,0,0,0,0,0,0,0,0,0,0,0,0,0,0,0,0,0,0,0,0,0,0,0,0,0,0,0,0,0,0,0,0,0,0,0,0,0,0,0,0,0,0,0,0,0,0,0,0,0,0,0,0,0,0,0,0,0,0,0,0,0,0,0,0,0,0,0,0,0,0,0,0,0,0,0,0,0,0,0,0,0,
0,0,0,0,0,0,0,0,0,0,0,0,0,0,0,0,0,0,0,0,0,0,0,0,0,0,0,0,0,0,0,0,0,0,0,0,0,0,0,0,0,0,0,0,0,0,0,0,0,0,0,0,0,0,0,0,0,0,0,0,0,0,0,0,0,0,0,0,0,0,0,0,0,0,0,0,0,0,0,0,0,0,0,0,0,0,0,0,0,0,0,0,0,0,0,0,0,0,0,0,0,0,0,0,0,0,0,0,0,0,0,0,0,126,126,126,126,0,0,0,0,0,0,0,0,0,0,0,0,0,0,0,0,0,0,0,0,0,0,0,0,0,0,0,0,0,0,0,0,0,0,0,0,0,0,0,0,0,0,0,0,0,0,0,0,0,0,0,0,0,0,0,0,0,0,0,0,0,0,0,0,0,0,0,0,0,0,0,0,0,0,0,0,0,0,0,0,0,127,0,
0,0,0,0,0,0,0,0,0,0,0,0,0,0,0,0,0,0,0,0,0,0,0,0,0,0,0,0,0,0,0,0,0,0,0,0,0,0,0,0,0,0,0,0,0,0,0,0,0,0,0,0,0,0,0,0,0,0,0,0,0,0,0,0,0,0,0,0,0,0,0,0,0,0,0,0,0,0,0,0,0,0,0,0,0,0,0,0,0,0,0,0,0,0,0,0,0,0,0,0,0,0,0,0,0,0,0,0,0,0,0,0,0,0,0,0,0,0,0,0,0,0,0,0,0,0,0,0,0,0,0,0,0,0,0,0,0,0,0,0,0,126,295,126,126,126,0,0,0,0,0,0,0,0,0,0,0,0,0,0,0,0,0,0,0,0,0,0,0,0,0,0,0,0,0,0,0,0,0,0,0,0,0,0,0,0,0,0,0,0,0,0,0,0,113,0,0,0,0,0,
0,0,0,0,0,0,0,0,0,0,0,0,0,0,0,0,0,0,0,0,0,0,0,0,0,0,0,0,0,0,0,0,0,0,0,0,0,0,0,0,0,0,131,0,0,0,0,0,0,0,0,0,0,0,0,0,0,0,0,0,0,0,0,0,0,0,0,0,0,0,0,0,0,0,0,0,0,0,0,0,0,0,0,126,126,125,0,0,0,0,0,0,0,0,0,0,0,0,0,0,0,0,0,0,0,0,0,0,0,0,0,0,0,0,0,0,0,0,0,0,0,0,0,0,0,0,0,0,0,0,0,0,0,0,0,0,0,0,0,0,0,0,0,0,0,0,0,0,0,0,0,146,0,0,0,0,0,0,0,0,0,0,0,0,0,0,0,0,0,0,0,0,0,0,0,0,0,0,0,0,0,128,128,128,128,0,0,0,0,0,0,0,0,0,137,137,0,0,0,0,
0,0,0,0,0,0,0,0,0,0,0,0,0,0,0,0,0,0,0,0,0,0,0,0,0,0,0,0,0,0,0,0,0,0,0,0,0,0,0,0,0,0,0,0,0,0,0,0,0,0,120,0,0,0,0,0,0,0,0,0,0,0,0,0,0,126,126,0,0,0,0,0,0,0,0,0,0,0,0,0,0,0,0,155,3,3,156,0,0,0,0,0,0,0,0,0,0,0,6,7,0,0,0,0,0,0,0,0,0,0,0,0,0,155,3,3,156,0,0,0,0,0,0,0,0,0,0,0,0,0,0,0,0,0,0,0,0,0,0,0,0,0,0,0,0,0,0,0,0,0,0,0,0,0,0,126,126,126,126,0,0,0,0,0,0,0,0,0,0,0,0,0,0,0,0,0,0,0,0,0,0,0,0,0,0,0,0,0,0,0,0,0,0,0,137,137,0,0,0,0,
0,0,0,0,0,0,0,0,0,0,0,0,0,0,0,0,0,0,0,0,0,0,0,0,0,0,0,0,0,126,125,126,0,0,0,0,0,0,0,0,0,0,0,0,0,0,0,155,3,3,3,3,156,0,0,0,0,0,0,0,0,0,0,0,0,126,126,0,0,0,0,0,0,0,0,0,0,0,126,126,126,126,0,153,2,2,154,0,0,0,0,0,0,0,0,0,0,0,4,5,0,0,0,0,0,0,0,0,0,0,0,0,0,153,2,2,154,0,0,0,0,128,0,0,0,0,0,0,0,0,0,0,0,0,0,0,0,0,0,0,0,155,3,3,156,0,0,0,0,0,0,0,0,0,0,0,0,0,0,0,0,0,0,0,0,0,0,0,0,0,0,0,0,0,0,0,0,0,0,0,0,22,23,24,0,0,0,0,0,0,0,0,137,137,137,137,0,0,0,0,
0,0,0,0,0,0,0,0,0,0,0,0,0,0,0,0,0,0,0,0,0,0,0,0,0,0,0,0,0,6,3,7,0,0,0,0,0,0,0,0,0,0,0,0,0,0,0,153,2,2,2,2,154,0,0,0,0,0,0,0,0,0,0,0,0,6,7,0,0,0,0,0,0,0,0,0,0,0,155,3,156,0,0,153,2,2,154,0,0,0,0,0,0,0,0,0,0,0,4,5,0,0,0,0,0,0,0,0,0,0,128,128,0,153,2,2,154,0,0,0,0,74,75,76,0,0,128,0,0,0,0,0,0,0,0,0,0,0,0,0,0,153,2,2,154,0,0,0,0,0,0,0,0,0,0,0,0,0,0,0,0,0,0,0,0,0,18,0,0,0,0,0,0,0,0,0,0,0,0,0,0,0,0,0,0,0,0,0,0,0,0,0,137,137,137,137,0,0,0,0,
0,0,0,0,0,0,0,146,0,0,0,0,0,0,0,0,0,0,0,0,0,0,0,0,0,0,0,0,0,4,2,5,0,0,0,0,0,0,0,0,0,155,3,3,156,0,0,153,2,2,2,2,154,0,0,138,133,130,149,0,0,0,0,0,147,4,5,0,0,0,0,0,0,0,0,128,0,0,153,2,154,0,0,153,2,2,154,0,0,0,0,0,149,149,0,0,0,136,4,5,0,0,0,0,0,0,0,0,0,0,152,0,0,153,2,2,154,0,0,0,0,0,0,0,0,155,156,0,0,126,126,126,0,0,0,0,126,126,126,0,0,153,2,2,154,0,0,0,0,0,0,155,156,0,0,0,155,156,0,0,0,0,0,0,0,0,19,0,0,0,0,0,0,0,0,0,0,0,0,0,0,0,0,0,0,0,0,0,0,0,137,137,137,137,137,137,0,0,0,0,
0,0,0,0,0,0,0,0,0,0,0,0,0,0,0,0,0,0,0,0,0,126,126,126,0,0,0,0,0,4,2,5,126,126,0,0,0,0,0,0,0,153,2,2,154,0,0,153,2,2,2,2,154,0,0,0,0,0,0,0,0,0,0,0,0,4,5,0,0,0,0,0,0,0,0,3,0,0,153,2,154,0,0,153,2,2,154,0,0,0,0,0,0,0,0,0,0,0,4,5,0,0,0,0,126,126,126,126,0,0,151,0,0,153,2,2,154,0,0,0,0,0,0,0,0,153,154,0,0,74,75,76,0,0,0,0,0,120,0,0,0,153,2,2,154,0,0,126,126,126,0,153,154,0,0,0,153,154,0,0,0,0,0,0,0,0,19,0,0,120,0,0,0,0,0,122,0,0,0,110,0,0,0,0,0,0,0,0,0,0,137,137,137,137,137,137,0,0,0,0,
0,0,0,0,0,0,0,0,0,0,0,0,0,0,0,0,0,0,0,0,0,126,126,126,0,0,0,155,3,2,2,2,3,156,0,0,128,0,0,128,0,153,2,2,154,0,0,153,2,2,2,2,154,0,0,0,0,0,0,0,0,0,0,0,0,4,5,0,0,0,0,0,0,0,0,151,0,0,153,2,154,0,0,153,2,2,154,0,0,0,0,0,0,0,0,0,0,0,4,5,0,0,0,0,0,0,0,0,0,0,151,0,0,153,2,2,154,0,0,0,0,0,0,0,0,153,154,0,0,0,0,0,0,0,0,0,155,3,156,0,0,153,2,2,154,0,0,0,0,0,0,153,154,0,0,0,153,154,0,0,0,0,0,0,6,3,3,3,3,3,3,3,3,3,3,3,3,3,3,3,3,3,3,3,3,3,3,3,3,3,3,3,3,3,3,3,3,3,3,3,
0,0,0,1,0,0,0,0,110,0,0,0,0,0,0,0,0,0,0,0,0,155,3,156,0,0,0,153,2,2,2,2,2,154,0,0,3,0,0,3,0,153,2,2,154,0,0,153,2,2,2,2,154,0,0,0,0,119,0,0,0,0,0,0,0,4,5,0,0,0,126,126,126,126,0,151,0,0,153,2,154,0,0,153,2,2,154,0,0,126,126,126,0,0,0,0,0,0,4,5,0,0,0,0,0,0,0,0,0,0,151,0,0,153,2,2,154,0,0,0,0,0,0,0,0,153,154,0,0,0,0,0,0,0,0,0,153,2,154,0,0,153,2,2,154,0,0,0,152,0,0,153,154,0,0,0,153,154,0,0,0,0,0,0,4,2,2,2,2,2,2,2,2,2,2,2,2,2,2,2,2,2,2,2,2,2,2,2,2,2,2,2,2,2,2,2,2,2,2,2,
3,3,3,3,3,3,3,3,3,3,3,3,3,3,3,3,3,156,0,0,0,153,2,154,0,0,0,153,2,2,2,2,2,154,0,0,151,0,0,151,0,153,2,2,154,0,0,153,2,2,2,2,154,0,0,0,155,3,156,0,0,0,0,155,3,2,2,156,0,0,155,3,156,0,0,151,0,0,153,2,154,0,0,153,2,2,154,0,0,155,3,156,0,0,0,0,155,3,2,154,0,0,0,0,155,3,3,156,0,0,151,0,0,153,2,2,154,0,0,0,0,0,0,0,0,153,154,0,0,0,0,0,0,0,0,0,153,2,154,0,0,153,2,2,154,0,0,0,151,0,0,153,154,0,0,0,153,154,0,0,0,0,0,0,4,2,2,2,2,2,2,2,2,2,2,2,2,2,2,2,2,2,2,2,2,2,2,2,2,2,2,2,2,2,2,2,2,2,2,2,
2,2,2,2,2,2,2,2,2,2,2,2,2,2,2,2,2,154,0,0,0,153,2,154,0,0,0,153,2,2,2,2,2,154,0,0,151,0,0,151,0,153,2,2,154,0,0,153,2,2,2,2,154,0,0,0,153,2,154,0,0,0,0,153,2,2,2,154,0,0,153,2,154,0,0,151,0,0,153,2,154,0,0,153,2,2,154,0,0,153,2,154,0,0,0,0,153,2,2,154,0,0,0,0,153,2,2,154,0,0,151,0,0,153,2,2,154,0,0,0,0,0,0,0,0,153,154,0,0,0,0,0,0,0,0,0,153,2,154,0,0,153,2,2,154,0,0,0,151,0,0,153,154,0,0,0,153,154,0,0,0,0,0,0,4,2,2,2,2,2,2,2,2,2,2,2,2,2,2,2,2,2,2,2,2,2,2,2,2,2,2,2,2,2,2,2,2,2,2,2
</data>
 </layer>
</map>
